X:1
T:Musical Offering Canon Perpetuus (A = 415 Hz)
T:BWV 1079
T:J. S. Bach
%%score 1 { 2 | 3 }
L:1/8
M:4/4
K:D
V:1 treble nm="Harp"
V:2 alto nm="Harp"
V:3 bass 
V:1
 z z/ g/ f>e d>c c/4B/4c/4B/4c/4B/4^A/4B/4 | c/d/c/B/ ^A/F/^G/A/ B/A/B/c/ d/B/c/d/ | %2
 ^G2 z c FG/^A/ B2- | Bc/^d/ e=f ^f3 ^g/^a/ | b4- b^a z e- | %5
 e>g f>e d>c c/4B/4c/4B/4c/4B/4^A/4B/4 | c/d/c/B/ ^A/F/^G/A/ B/A/B/c/ d/B/c/d/ | %7
 ^G2 z c FG/^A/ B2- | Bc/^d/ e=f ^f2- f^g/^a/ | b4- b^a z e- | %10
 e>g f>e d>c c/4B/4c/4B/4c/4B/4^A/4B/4 | c/d/c/B/ ^A/F/^G/A/ B/A/B/c/ d/B/c/d/ | %12
 ^G2 z c FG/^A/ B2- | Bc/^d/ e=f ^f2- f^g/^a/ | b4- b^a z e- | %15
 e>g f>e d>c c/4B/4c/4B/4c/4B/4^A/4B/4 | c/d/c/B/ ^A/F/^G/A/ B/A/B/c/ d/B/c/d/ | %17
 ^G2 z c FG/^A/ B2- | Bc/^d/ e=f ^f2- f^g/^a/ | b4 z4 |] %20
V:2
 B,2 D2 F2 G2 | ^A,2 z4 F2 | =F2 E2 ^D2 =D2- | DC=CB, ^A,/4^G,/4 F,2 A,/B,/E/ | %4
 ^D2 =D3- D/4C/4D/4C/4 D/4C/4D/4C/4D/4C/4D/4C/4 | B,2 D2 F2 G2 | ^A,2 z4 F2 | =F2 E2 ^D2 =D2- | %8
 DC=CB, ^A,/4^G,/4 F,2 A,/B,/E/ | ^D2 =D3- D/4C/4D/4C/4 D/4C/4D/4C/4D/4C/4D/4C/4 | B,2 D2 F2 G2 | %11
 ^A,2 z4 F2 | =F2 E2 ^D2 =D2- | DC=CB, ^A,/4^G,/4 F,2 A,/B,/E/ | %14
 ^D2 =D3- D/4C/4D/4C/4 D/4C/4D/4C/4D/4C/4D/4C/4 | B,2 D2 F2 G2 | ^A,2 z4 F2 | =F2 E2 ^D2 =D2- | %18
 DC=CB, ^A,/4^G,/4 F,2 A,/B,/E/ | ^D4 z4 |] %20
V:3
 z8 | z z/ G,/ F,>E, D,>C, C,/4B,,/4C,/4B,,/4C,/4B,,/4^A,,/4B,,/4 | %2
 C,/D,/C,/B,,/ ^A,,/F,,/^G,,/A,,/ B,,/A,,/B,,/C,/ D,/B,,/C,/D,/ | ^G,,2 z C, F,,G,,/^A,,/ B,,2- | %4
 B,,C,/^D,/ E,=F, ^F,3 ^G,/^A,/ | B,4- B,^A, z E,- | %6
 E,>G, F,>E, D,>C, C,/4B,,/4C,/4B,,/4C,/4B,,/4^A,,/4B,,/4 | %7
 C,/D,/C,/B,,/ ^A,,/F,,/^G,,/A,,/ B,,/A,,/B,,/C,/ D,/B,,/C,/D,/ | ^G,,2 z C, F,,G,,/^A,,/ B,,2- | %9
 B,,C,/^D,/ E,=F, ^F,3 ^G,/^A,/ | B,4- B,^A, z E,- | %11
 E,>G, F,>E, D,>C, C,/4B,,/4C,/4B,,/4C,/4B,,/4^A,,/4B,,/4 | %12
 C,/D,/C,/B,,/ ^A,,/F,,/^G,,/A,,/ B,,/A,,/B,,/C,/ D,/B,,/C,/D,/ | ^G,,2 z C, F,,G,,/^A,,/ B,,2- | %14
 B,,C,/^D,/ E,=F, ^F,3 ^G,/^A,/ | B,4- B,^A, z E,- | %16
 E,>G, F,>E, D,>C, C,/4B,,/4C,/4B,,/4C,/4B,,/4^A,,/4B,,/4 | %17
 C,/D,/C,/B,,/ ^A,,/F,,/^G,,/A,,/ B,,/A,,/B,,/C,/ D,/B,,/C,/D,/ | ^G,,2 z C, F,,G,,/^A,,/ B,,2- | %19
 B,,4 z4 |] %20

